server/views/img/logo.svg

<?xml version="1.0" encoding="UTF-8" standalone="no"?>
<!-- Created with Inkscape (http://www.inkscape.org/) -->

<svg
   xmlns:dc="http://purl.org/dc/elements/1.1/"
   xmlns:cc="http://creativecommons.org/ns#"
   xmlns:rdf="http://www.w3.org/1999/02/22-rdf-syntax-ns#"
   xmlns:svg="http://www.w3.org/2000/svg"
   xmlns="http://www.w3.org/2000/svg"
   xmlns:sodipodi="http://sodipodi.sourceforge.net/DTD/sodipodi-0.dtd"
   xmlns:inkscape="http://www.inkscape.org/namespaces/inkscape"
   inkscape:version="0.48.4 r9939"
   version="1.1"
   id="svg2"
   height="800"
   width="800"
   sodipodi:docname="vearch.svg">
  <sodipodi:namedview
     id="base"
     pagecolor="#ffffff"
     bordercolor="#666666"
     borderopacity="1.0"
     inkscape:pageopacity="0.0"
     inkscape:pageshadow="2"
     inkscape:zoom="0.5"
     inkscape:cx="387.91471"
     inkscape:cy="453.80843"
     inkscape:document-units="px"
     inkscape:current-layer="svg2"
     showgrid="false"
     inkscape:window-width="1366"
     inkscape:window-height="706"
     inkscape:window-x="0"
     inkscape:window-y="27"
     inkscape:window-maximized="1" />
  <defs
     id="defs4" />
  <metadata
     id="metadata7">
    <rdf:RDF>
      <cc:Work
         rdf:about="">
        <dc:format>image/svg+xml</dc:format>
        <dc:type
           rdf:resource="http://purl.org/dc/dcmitype/StillImage" />
      </cc:Work>
    </rdf:RDF>
  </metadata>
  <g
     transform="translate(0,-252.36218)"
     id="layer1"
     inkscape:groupmode="layer"
     inkscape:label="Layer 1" />
  <path
     style="fill:#1abc9c;fill-rule:evenodd;stroke:none;fill-opacity:1"
     d="m 173.45188,580.88054 458.48553,-0.34423 -0.30208,-488.984563 -458.48552,0.34423 z m 38.56293,-66.92016 -0.0123,-17.77421 c -0.005,-6.13468 4.85768,-10.94165 10.82891,-10.94612 l 38.78405,-0.0292 c 5.97124,-0.005 10.84012,4.79522 10.84448,10.9299 l 0.0123,17.77418 c 0.005,6.13467 -4.85753,11.13698 -10.82878,11.14148 l -38.78404,0.0292 c -5.97124,0.005 -10.84029,-4.99055 -10.84462,-11.12523 z m -0.0748,-105.27816 -0.0123,-17.57892 c -0.005,-6.13465 4.85755,-11.13695 10.82878,-11.14141 l 38.78405,-0.0292 c 5.97122,-0.005 10.84025,4.99054 10.84462,11.12517 l 0.0123,17.57889 c 0.005,6.13468 -4.85756,11.13698 -10.8288,11.14145 l -38.78402,0.0292 c -5.97124,0.005 -10.84027,-4.99052 -10.84463,-11.12518 z m -0.0748,-105.08282 -0.0123,-17.77428 c -0.005,-6.13461 4.85756,-11.13694 10.82879,-11.14142 l 38.78407,-0.0292 c 5.97121,-0.005 10.84027,4.99052 10.84463,11.12515 l 0.0123,17.77427 c 0.005,6.13462 -4.85769,10.94162 -10.82893,10.94609 l -38.78405,0.0292 c -5.97123,0.005 -10.84014,-4.79524 -10.84448,-10.92986 z m -0.0749,-105.27819 -0.0123,-17.77425 c -0.005,-6.13461 4.85756,-11.13696 10.82879,-11.14143 l 38.78404,-0.0292 c 5.97123,-0.005 10.84026,4.99052 10.84462,11.12518 l 0.0123,17.77424 c 0.005,6.13461 -4.85771,10.94165 -10.82893,10.9461 l -38.78403,0.0293 c -5.97125,0.005 -10.84013,-4.79523 -10.84452,-10.92985 z m 80.0893,360.06458 -0.27065,-442.49525 221.40855,-0.16628 0.27066,442.49522 z m 245.16019,-41.15362 -0.0123,-17.77424 c -0.005,-6.13468 4.66808,-11.13684 10.63869,-11.14129 l 38.78404,-0.0292 c 5.97123,-0.005 10.84058,4.99055 10.84495,11.12521 l 0.0123,17.77423 c 0.005,6.13465 -4.85802,10.94165 -10.82925,10.94612 l -38.78404,0.0292 c -5.97059,0.005 -10.65001,-4.79536 -10.65438,-10.93001 z m -0.0749,-105.2782 -0.0123,-17.77421 c -0.005,-6.13467 4.6681,-11.13682 10.6387,-11.14131 l 38.78404,-0.0291 c 5.97184,-0.005 10.84061,4.99053 10.84493,11.12522 l 0.0123,17.77419 c 0.005,6.13469 -4.8574,10.94167 -10.82926,10.94612 l -38.78404,0.0293 c -5.96998,0.005 -10.65002,-4.79534 -10.65442,-10.93001 z m -0.0751,-105.27815 -0.0123,-17.77427 c -0.005,-6.13464 4.66809,-11.13679 10.63869,-11.14127 l 38.78403,-0.0292 c 5.97243,-0.005 10.84059,4.99054 10.84495,11.12517 l 0.0123,17.77425 c 0.005,6.13466 -4.85667,11.13698 -10.82912,11.14145 l -38.784,0.0292 c -5.96942,0.005 -10.6502,-4.9907 -10.65455,-11.12533 z M 536.815,201.39766 536.8027,183.6234 c -0.005,-6.13465 4.66827,-10.94147 10.63883,-10.94595 l 38.78406,-0.0293 c 5.97304,-0.005 10.84045,4.79518 10.84481,10.92986 l 0.0122,17.77423 c 0.005,6.13465 -4.85665,11.13696 -10.82909,11.14145 l -38.78405,0.0292 c -5.96878,0.005 -10.65017,-4.99068 -10.65452,-11.12533 z"
     id="rect10"
     inkscape:connector-curvature="0"
     sodipodi:nodetypes="cccccsssssssssssssssssssssssssssscsssssssccsccssssssssssssssssssssssssssssssscsssscsccc" />
  <path
     sodipodi:type="arc"
     style="fill:none;stroke:#ffffff;stroke-width:96.79733276;stroke-linejoin:round;stroke-miterlimit:4;stroke-opacity:1;stroke-dasharray:none"
     id="path3613"
     sodipodi:cx="427.0925"
     sodipodi:cy="333.30954"
     sodipodi:rx="197.9899"
     sodipodi:ry="197.9899"
     d="m 625.0824,333.30954 a 197.9899,197.9899 0 1 1 -395.9798,0 197.9899,197.9899 0 1 1 395.9798,0 z"
     transform="matrix(1.4621881,0,0,1.4621881,-224.48958,-151.36125)" />
  <rect
     style="fill:#1abc9c;fill-opacity:1;stroke:none;stroke-opacity:1"
     id="rect3595"
     width="76.367538"
     height="272.94321"
     x="486.90759"
     y="289.6012"
     ry="11.678514"
     transform="matrix(0.82066591,0.57140832,-0.57140832,0.82066591,0,0)"
     rx="27.686861" />
  <path
     sodipodi:type="arc"
     style="fill:none;stroke:#1abc9c;stroke-width:15;stroke-linejoin:round;stroke-miterlimit:4;stroke-opacity:1;stroke-dasharray:none"
     id="path4572"
     sodipodi:cx="334"
     sodipodi:cy="300"
     sodipodi:rx="270"
     sodipodi:ry="270"
     d="m 604,300 a 270,270 0 1 1 -540,0 270,270 0 1 1 540,0 z"
     transform="matrix(0.92072072,0,0,0.92072072,90.479279,59.783784)" />
  <rect
     style="fill:none;stroke:none"
     id="rect4592"
     width="2.1213202"
     height="2.8284271"
     x="295.22391"
     y="564.47101"
     rx="1.7716535"
     ry="2.8284271" />
</svg>

<?xml version="1.0" encoding="UTF-8" standalone="no"?>
<!-- Created with Inkscape (http://www.inkscape.org/) -->

<svg
   xmlns:dc="http://purl.org/dc/elements/1.1/"
   xmlns:cc="http://creativecommons.org/ns#"
   xmlns:rdf="http://www.w3.org/1999/02/22-rdf-syntax-ns#"
   xmlns:svg="http://www.w3.org/2000/svg"
   xmlns="http://www.w3.org/2000/svg"
   xmlns:sodipodi="http://sodipodi.sourceforge.net/DTD/sodipodi-0.dtd"
   xmlns:inkscape="http://www.inkscape.org/namespaces/inkscape"
   inkscape:version="0.48.4 r9939"
   version="1.1"
   id="svg2"
   height="800"
   width="800"
   sodipodi:docname="vearch.svg">
  <sodipodi:namedview
     id="base"
     pagecolor="#ffffff"
     bordercolor="#666666"
     borderopacity="1.0"
     inkscape:pageopacity="0.0"
     inkscape:pageshadow="2"
     inkscape:zoom="0.70710678"
     inkscape:cx="562.10844"
     inkscape:cy="423.10059"
     inkscape:document-units="px"
     inkscape:current-layer="svg2"
     showgrid="false"
     inkscape:window-width="1366"
     inkscape:window-height="706"
     inkscape:window-x="0"
     inkscape:window-y="27"
     inkscape:window-maximized="1" />
  <defs
     id="defs4" />
  <metadata
     id="metadata7">
    <rdf:RDF>
      <cc:Work
         rdf:about="">
        <dc:format>image/svg+xml</dc:format>
        <dc:type
           rdf:resource="http://purl.org/dc/dcmitype/StillImage" />
        <dc:title></dc:title>
      </cc:Work>
    </rdf:RDF>
  </metadata>
  <g
     transform="translate(0,-252.36218)"
     id="layer1"
     inkscape:groupmode="layer"
     inkscape:label="Layer 1" />
  <path
     style="fill:#1abc9c;fill-rule:evenodd;stroke:none;fill-opacity:1"
     d="M 291.625 145.28125 C 279.25068 152.19779 267.61511 160.26946 256.875 169.375 L 261.40625 169.375 C 267.37748 169.37 272.24564 174.36534 272.25 180.5 L 272.25 198.28125 C 272.255 204.41586 267.37747 209.2143 261.40625 209.21875 L 222.625 209.25 C 221.84494 209.25065 221.10904 209.15562 220.375 209 C 194.74566 244.78451 179.625 288.62688 179.625 336 C 179.625 393.72322 202.04652 446.20559 238.625 485.25 L 261.625 485.21875 C 267.59624 485.21375 272.46439 490.02157 272.46875 496.15625 L 272.46875 513.90625 C 272.46895 514.15479 272.45303 514.41169 272.4375 514.65625 C 278.67236 519.04599 285.15229 523.11378 291.84375 526.84375 L 291.625 145.28125 z M 513.0625 150.375 L 513.25 521.46875 C 521.55366 516.29738 529.52222 510.61225 537.03125 504.40625 L 537.03125 499.46875 C 537.02625 493.33407 541.68564 488.31695 547.65625 488.3125 L 554.4375 488.3125 C 592.7472 448.97152 616.375 395.24966 616.375 336 C 616.375 290.16308 602.22572 247.62559 578.09375 212.5 L 547.46875 212.53125 C 541.49997 212.53625 536.81685 207.5409 536.8125 201.40625 L 536.8125 183.625 C 536.80861 178.85725 539.62704 174.90765 543.6875 173.375 C 534.18879 164.85976 523.95034 157.13903 513.0625 150.375 z M 261.46875 274.65625 C 267.43996 274.65125 272.30814 279.64662 272.3125 285.78125 L 272.3125 303.5625 C 272.3175 309.69712 267.47124 314.49553 261.5 314.5 L 222.71875 314.53125 C 216.74752 314.53625 211.87934 309.72837 211.875 303.59375 L 211.84375 285.8125 C 211.83875 279.67789 216.71627 274.69198 222.6875 274.6875 L 261.46875 274.65625 z M 586.3125 277.71875 C 592.28493 277.71375 597.15189 282.70912 597.15625 288.84375 L 597.15625 306.625 C 597.16125 312.75966 592.3162 317.77678 586.34375 317.78125 L 547.53125 317.8125 C 541.56183 317.8175 536.87935 312.82213 536.875 306.6875 L 536.875 288.90625 C 536.87 282.77161 541.56065 277.75448 547.53125 277.75 L 586.3125 277.71875 z M 261.53125 379.9375 C 267.50247 379.9325 272.37063 384.92787 272.375 391.0625 L 272.40625 408.625 C 272.41125 414.75968 267.53374 419.77678 261.5625 419.78125 L 222.78125 419.8125 C 216.81001 419.8175 211.94186 414.82216 211.9375 408.6875 L 211.9375 391.09375 C 211.9325 384.9591 216.77877 379.97321 222.75 379.96875 L 261.53125 379.9375 z M 586.375 383 C 592.34684 382.995 597.21443 387.99031 597.21875 394.125 L 597.21875 411.90625 C 597.22375 418.04094 592.37811 422.8393 586.40625 422.84375 L 547.625 422.875 C 541.65502 422.88 536.97315 418.10342 536.96875 411.96875 L 536.9375 394.1875 C 536.9325 388.05283 541.62315 383.03574 547.59375 383.03125 L 586.375 383 z "
     id="rect10" />
  <path
     sodipodi:type="arc"
     style="fill:none;stroke:#1abc9c;stroke-width:13.6781311;stroke-linejoin:round;stroke-miterlimit:4;stroke-opacity:1;stroke-dasharray:none"
     id="path3613"
     sodipodi:cx="427.0925"
     sodipodi:cy="333.30954"
     sodipodi:rx="197.9899"
     sodipodi:ry="197.9899"
     d="m 625.0824,333.30954 a 197.9899,197.9899 0 1 1 -395.9798,0 197.9899,197.9899 0 1 1 395.9798,0 z"
     transform="matrix(1.2034368,0,0,1.2034368,-115.97822,-63.116508)" />
  <rect
     style="fill:#1abc9c;fill-opacity:1;stroke:none"
     id="rect3595"
     width="76.367538"
     height="272.94321"
     x="487.90463"
     y="284.0329"
     ry="11.678514"
     transform="matrix(0.82066591,0.57140832,-0.57140832,0.82066591,0,0)"
     rx="27.686861" />
  <rect
     style="fill:none;stroke:none"
     id="rect4592"
     width="2.1213202"
     height="2.8284271"
     x="295.22391"
     y="564.47101"
     rx="1.7716535"
     ry="2.8284271" />
</svg>
